assets/svg/notes.svg

<svg fill="none" height="20" viewBox="0 0 20 20" width="20" xmlns="http://www.w3.org/2000/svg"><path clip-rule="evenodd" d="m19.7071 5.29289-5-4.999997c-.3905-.3905241-1.0237-.3905241-1.4142 0l-13.000007 13.000007c-.187536.1875-.292893.4419-.292893.7071v5c0 .5523.447715 1 1 1h5c.26522 0 .51957-.1054.70711-.2929l12.99999-12.99999c.3905-.39053.3905-1.02369 0-1.41422zm-17.77162 12.77161v-3.5623l11.92152-11.92155 3.5624 3.56233-11.92158 11.92152z" fill="#fff" fill-rule="evenodd"/></svg>

<svg width="20" height="20" viewBox="0 0 20 20" fill="none" xmlns="http://www.w3.org/2000/svg">
<path fill-rule="evenodd" clip-rule="evenodd" d="M19.7071 5.29289L14.7071 0.292893C14.3166 -0.0976311 13.6834 -0.0976311 13.2929 0.292893L0.292893 13.2929C0.105357 13.4804 0 13.7348 0 14V19C0 19.5523 0.447715 20 1 20H6C6.26522 20 6.51957 19.8946 6.70711 19.7071L19.7071 6.70711C20.0976 6.31658 20.0976 5.68342 19.7071 5.29289ZM1.93548 18.0645V14.5022L13.857 2.58065L17.4194 6.14298L5.49782 18.0645H1.93548Z" fill="white"/>
</svg>
